X: 6270
T: Carolan's Favourite
R: jig
M: 6/8
K: Dmixolydian
dAG F2D|G2E F2D|dAG F2D|ECE GFE|
dAG F2D|G2E F2D|GAB cBA|GEC EGE||
f2d dfd|afd ege|f2d d/e/fd|gec ege|
fed edc|dcB cBA|GAB cBA|GEC EGE||
FED d2D|FED d2D|FED d2D|GEC EGE|
FED d2A|e2A f2A|g2A f2A|GEC EGE||

